lib/brands/icons/ms-powerapps.svg

<svg xmlns="http://www.w3.org/2000/svg" fill="none" aria-hidden="true" viewBox="0 0 48 48"><g id="ms-powerapps-Icon"><g id="Group"><mask id="mask0_94_18802" width="36" height="36" x="6" y="6" maskUnits="userSpaceOnUse" style="mask-type:alpha"><g id="mask0"><path id="Vector" fill="white" d="M6.55736 22.5166C5.81421 23.3659 5.81421 24.6341 6.55736 25.4834L19.8978 40.7295C20.4961 41.4134 21.5598 41.4134 22.1582 40.7295L23.5947 39.0877L25.1767 40.8135C25.772 41.4628 26.7956 41.4628 27.3908 40.8135L41.4079 25.5221C42.1974 24.6609 42.1974 23.3391 41.4079 22.4778L27.3908 7.18645C26.7956 6.53713 25.772 6.53713 25.1767 7.18645L23.5947 8.91226L22.1582 7.27043C21.5598 6.58663 20.4961 6.58663 19.8978 7.27043L6.55736 22.5166Z"/></g></mask><g mask="url(#mask0_94_18802)"><g id="Group_2"><g id="Group_3"><path id="Vector_2" fill="url(#paint0_linear_94_18802)" d="M21.0278 42.0212L5.25928 24L21.0278 5.97876L36.7964 24L21.0278 42.0212Z"/><path id="Vector_3" fill="black" fill-opacity="0.32" d="M26.2838 6.72974L42.8033 24.7509L26.2838 42.7722L18.9543 34.7763C18.428 34.2022 18.428 33.3209 18.9543 32.7468L25.3536 25.7657C25.8799 25.1916 25.8799 24.3103 25.3536 23.7362L18.9543 16.7551C18.428 16.181 18.428 15.2997 18.9543 14.7256L26.2838 6.72974Z"/><path id="Vector_4" fill="black" fill-opacity="0.24" d="M26.2838 6.12134L42.8033 24.1425L26.2838 42.1638L18.9543 34.1679C18.428 33.5938 18.428 32.7125 18.9543 32.1384L25.3536 25.1573C25.8799 24.5832 25.8799 23.7019 25.3536 23.1278L18.9543 16.1467C18.428 15.5726 18.428 14.6913 18.9543 14.1172L26.2838 6.12134Z"/><path id="Vector_5" fill="url(#paint1_linear_94_18802)" d="M26.2838 5.97876L42.8033 24L26.2838 42.0212L18.9543 34.0254C18.428 33.4512 18.428 32.57 18.9543 31.9958L25.3536 25.0148C25.8799 24.4406 25.8799 23.5594 25.3536 22.9852L18.9543 16.0041C18.428 15.43 18.428 14.5487 18.9543 13.9746L26.2838 5.97876Z"/><path id="Vector_6" fill="url(#paint2_linear_94_18802)" d="M33.4369 16.197C34.0321 15.5476 35.0557 15.5476 35.6509 16.197L42.8036 23.9999L35.6509 31.8028C35.0557 32.4521 34.0321 32.4521 33.4369 31.8028L27.6795 25.522C26.89 24.6608 26.89 23.339 27.6795 22.4777L33.4369 16.197Z"/></g></g></g></g></g><defs><linearGradient id="paint0_linear_94_18802" x1="32.6665" x2="11.6418" y1="42.0213" y2="-9.41428" gradientUnits="userSpaceOnUse"><stop stop-color="#742774"/><stop offset="1" stop-color="#BB35A4"/></linearGradient><linearGradient id="paint1_linear_94_18802" x1="18.0245" x2="35.2948" y1="5.97885" y2="42.0213" gradientUnits="userSpaceOnUse"><stop stop-color="#E48CC7"/><stop offset="1" stop-color="#D467B9"/></linearGradient><linearGradient id="paint2_linear_94_18802" x1="29.2877" x2="34.5439" y1="16.8666" y2="33.0105" gradientUnits="userSpaceOnUse"><stop stop-color="#E9A1CB"/><stop offset="1" stop-color="#E48CC7"/></linearGradient></defs></svg>

<svg xmlns="http://www.w3.org/2000/svg" fill="none" aria-hidden="true" viewBox="0 0 48 48"><mask id="a" width="36" height="36" x="6" y="6" maskUnits="userSpaceOnUse" style="mask-type:alpha"><path fill="#fff" d="M6.557 22.517a2.253 2.253 0 0 0 0 2.966l13.34 15.247a1.502 1.502 0 0 0 2.261 0l1.437-1.642 1.582 1.725a1.5 1.5 0 0 0 2.214 0l14.017-15.29c.79-.862.79-2.184 0-3.045L27.39 7.186a1.502 1.502 0 0 0-2.214 0l-1.582 1.726-1.437-1.642a1.502 1.502 0 0 0-2.26 0L6.558 22.517Z"/></mask><g mask="url(#a)"><path fill="url(#b)" d="M21.028 42.021 5.259 24 21.028 5.979 36.796 24 21.028 42.021Z"/><path fill="#000" fill-opacity=".32" d="m26.284 6.73 16.52 18.02-16.52 18.022-7.33-7.996a1.502 1.502 0 0 1 0-2.03l6.4-6.98a1.502 1.502 0 0 0 0-2.03l-6.4-6.98a1.502 1.502 0 0 1 0-2.03l7.33-7.996Z"/><path fill="#000" fill-opacity=".24" d="m26.284 6.121 16.52 18.021-16.52 18.022-7.33-7.996a1.502 1.502 0 0 1 0-2.03l6.4-6.98a1.502 1.502 0 0 0 0-2.03l-6.4-6.981a1.502 1.502 0 0 1 0-2.03l7.33-7.996Z"/><path fill="url(#c)" d="M26.284 5.979 42.804 24l-16.52 18.021-7.33-7.996a1.502 1.502 0 0 1 0-2.03l6.4-6.98a1.502 1.502 0 0 0 0-2.03l-6.4-6.98a1.502 1.502 0 0 1 0-2.03l7.33-7.996Z"/><path fill="url(#d)" d="M33.437 16.197a1.502 1.502 0 0 1 2.214 0L42.804 24l-7.153 7.803a1.5 1.5 0 0 1-2.214 0l-5.757-6.281a2.253 2.253 0 0 1 0-3.044l5.757-6.281Z"/></g><defs><linearGradient id="b" x1="32.666" x2="11.642" y1="42.021" y2="-9.414" gradientUnits="userSpaceOnUse"><stop stop-color="#742774"/><stop offset="1" stop-color="#BB35A4"/></linearGradient><linearGradient id="c" x1="18.024" x2="35.295" y1="5.979" y2="42.021" gradientUnits="userSpaceOnUse"><stop stop-color="#E48CC7"/><stop offset="1" stop-color="#D467B9"/></linearGradient><linearGradient id="d" x1="29.288" x2="34.544" y1="16.867" y2="33.011" gradientUnits="userSpaceOnUse"><stop stop-color="#E9A1CB"/><stop offset="1" stop-color="#E48CC7"/></linearGradient></defs></svg>
